X: 9897
T: Derwentwater's Farewell
R: waltz
M: 3/4
K: Gmajor
D2E G2G|A2B D2B|c2B A2G|E3 G2E|
D2E G2G|A2B D2B|c2B c2d|e3 g2e||
d2B A2G|c2d e2g|d2B A2G|E3 G2E|
D2E G2G|A2B cde|d2B A2G|G6||

